X: 4021
T: The JACOBITE
R: Strathspey.
%R: strathspey
B: James Kerr "Merry Melodies" v.4 p.05 #21
Z: 2016 John Chambers <jc:trillian.mit.edu>
M: C
L: 1/8
K: A
|:\
e<c a>g f>ec>A | c<B B>A c<B B(c/d/) |\
e<c a>g f>ec>A | F<A A>B c<A Ac :|
|:\
d>ef>g a>ec>A | d>cB>A G<B B>f |\
e<c a>g f>ec>A | E<A A>B c<A Ac :|

%%sep 1 1 500
%%sep 1 1 500

